X:1
T:My Boy Billy
M:4/4
L:1/8
K:G
 G2 GG FE D2| G2 A2 B d2 z| G2 GG FE D2| GG A2 B d2 z| c2 cc BB B2|\
 AB AG FE D2| B3/2 A/2 BG E2 AF| DD FA G2 G2| c2 c2 B2 BB| A2 AG FE DD|\
 B3/2 A/2 BG E2 FA| DD FA G2 G2|
